build/communication/ViberRoundSolid.svg

<svg xmlns="http://www.w3.org/2000/svg" fill="none" viewBox="0 0 24 24" focusable="false"><path d="M0 0H24V24H0z"/><path fill="#74767B" fill-rule="evenodd" d="M12 3C7.02954 3 3 7.02942 3 12C3 16.9706 7.02954 21 12 21C16.9705 21 21 16.9706 21 12C21 7.02942 16.9705 3 12 3ZM6.5 11.7625C6.5 8.0163 8.08374 6.5 12 6.5C15.9163 6.5 17.5 8.0163 17.5 11.7625C17.5 15.5087 15.9163 17.0251 12 17.0251C11.7122 17.0251 11.4817 17.0251 11.0786 16.9656L9.98438 18.2441C9.78271 18.4819 9.17798 18.5711 9.17798 17.8575L9.17798 16.6088C9.00513 16.6088 8.60205 16.4304 8.05493 16.0737C7.50781 15.6871 6.5 14.7654 6.5 11.7625ZM7.36377 11.7625C7.36377 9.05695 7.85352 7.39191 12 7.39191C16.1465 7.39191 16.6362 9.05695 16.6362 11.7625C16.6362 14.4681 16.1465 16.1331 12 16.1331L11.2512 16.1034L9.7251 17.9765C9.60986 18.0954 9.49487 18.0062 9.49487 17.8873L9.49487 15.8358C9.32202 15.8358 8.60205 15.479 8.40063 15.2709C7.76709 14.587 7.36377 14.0816 7.36377 11.7625ZM12.2158 8.67957C12.1143 8.67102 12.0122 8.66803 11.9102 8.67047C11.8296 8.67236 11.7678 8.73932 11.7698 8.82251C11.7715 8.90576 11.8364 8.9696 11.917 8.96771C11.9587 8.96667 12.0002 8.96667 12.042 8.96771C12.0923 8.96899 12.1426 8.97168 12.1926 8.97589C12.2424 8.98004 12.2917 8.98566 12.3411 8.99268C12.3828 8.99866 12.4246 9.00562 12.4661 9.01367C12.5039 9.021 12.5415 9.02911 12.5789 9.03809C12.6309 9.0506 12.6826 9.06476 12.7341 9.08057C12.7791 9.09436 12.8235 9.10938 12.8674 9.12555C12.9102 9.14117 12.9521 9.15796 12.9941 9.1759C13.0366 9.19415 13.0789 9.21356 13.1204 9.23407C13.1616 9.25446 13.2026 9.27594 13.2429 9.29858C13.2795 9.31909 13.3154 9.34045 13.3511 9.36267C13.394 9.38965 13.4365 9.41785 13.478 9.44733C13.5159 9.47406 13.5527 9.50177 13.5891 9.53046C13.6257 9.55951 13.6619 9.58954 13.697 9.62054C13.7671 9.68219 13.834 9.7475 13.8975 9.81635C13.9609 9.88519 14.0208 9.95728 14.0769 10.0325C14.1331 10.1078 14.1853 10.1859 14.2336 10.2668C14.282 10.3478 14.3262 10.431 14.366 10.5167C14.3894 10.5671 14.4114 10.6181 14.4316 10.6697C14.446 10.706 14.4597 10.7426 14.4724 10.7794C14.5034 10.8689 14.53 10.9598 14.5518 11.0521C14.5737 11.1445 14.5908 11.2377 14.6033 11.3319C14.6157 11.4261 14.6235 11.5207 14.6265 11.6157C14.6294 11.7107 14.6274 11.8056 14.6208 11.9004C14.615 11.9835 14.6736 12.0534 14.7539 12.0594C14.8345 12.0655 14.9021 12.005 14.908 11.9219C14.9119 11.8662 14.9143 11.8105 14.9153 11.7546C14.916 11.7052 14.9158 11.6558 14.9143 11.6063C14.9109 11.5009 14.9026 11.3961 14.8887 11.2916C14.8748 11.1872 14.8557 11.0838 14.8315 10.9814C14.8074 10.8791 14.7778 10.7783 14.7434 10.6791C14.709 10.58 14.6697 10.4828 14.6255 10.3878C14.5813 10.2928 14.5322 10.2005 14.4788 10.1108C14.4253 10.0211 14.3672 9.93451 14.3049 9.85107C14.2427 9.76758 14.1763 9.68768 14.106 9.61133C14.0356 9.53497 13.9614 9.46265 13.8838 9.39429C13.8457 9.36066 13.8066 9.32806 13.7668 9.29651C13.7258 9.26398 13.6838 9.23254 13.6411 9.20227C13.5945 9.16925 13.5471 9.1377 13.499 9.1076C13.46 9.08325 13.4204 9.05981 13.3804 9.03735C13.3364 9.01263 13.2917 8.98914 13.2466 8.9668C13.1997 8.94366 13.1523 8.92181 13.1045 8.90131C13.0576 8.88129 13.0105 8.86249 12.9629 8.84503C12.9146 8.82727 12.8657 8.81079 12.8162 8.79559C12.7585 8.77789 12.7007 8.76202 12.6421 8.74805C12.6013 8.73828 12.5603 8.72937 12.519 8.72144C12.4727 8.71246 12.426 8.70465 12.3792 8.698C12.325 8.69025 12.2705 8.68414 12.2158 8.67957ZM12.9214 13.0112C13.1135 12.7536 13.3438 12.7139 13.6125 12.8923L14.6492 13.6951C14.8027 13.8933 14.7356 14.1708 14.4478 14.5276C14.1597 14.8844 13.8909 15.033 13.6414 14.9736C12.6239 14.7357 11.6449 14.1411 10.7041 13.1896C9.76343 12.2382 9.17798 11.2075 8.94775 10.0975C8.94775 9.70111 9.1875 9.36414 9.66748 9.08667C9.91699 8.90826 10.1282 8.95782 10.301 9.23529L11.021 10.2759C11.1362 10.5138 11.0688 10.7318 10.8193 10.9301C9.69629 11.376 12.2878 14.26 12.9214 13.0112ZM12.2861 9.44666C12.2483 9.44446 12.2104 9.44342 12.1726 9.44342C12.092 9.44354 12.0288 9.50903 12.0288 9.59222C12.0288 9.67548 12.0923 9.74084 12.1729 9.74078C12.2302 9.74072 12.2876 9.74359 12.3445 9.74951C12.4016 9.75543 12.4583 9.76434 12.5144 9.77618C12.5435 9.78375 12.6523 9.81122 12.6809 9.82037C12.7092 9.83099 12.8145 9.86951 12.842 9.88171C12.8948 9.90497 12.9463 9.93091 12.9963 9.95953C13.0466 9.98816 13.0952 10.0193 13.1423 10.053C13.1628 10.0696 13.2588 10.1439 13.2786 10.1614C13.3064 10.1876 13.3772 10.2551 13.4033 10.2833C13.4241 10.3079 13.4961 10.3918 13.5156 10.4176C13.5508 10.4642 13.5835 10.5127 13.614 10.5629C13.6445 10.6131 13.6726 10.6647 13.698 10.7178C13.7234 10.7708 13.7461 10.8251 13.7661 10.8806C13.7861 10.936 13.8035 10.9924 13.8181 11.0497C13.8328 11.1069 13.8445 11.1649 13.8533 11.2233C13.8621 11.2819 13.8682 11.3406 13.8713 11.3998C13.8743 11.4589 13.8745 11.5181 13.8718 11.5771C13.8682 11.6603 13.9285 11.7287 14.009 11.7326C14.0896 11.7365 14.1558 11.6743 14.1594 11.5911C14.1626 11.522 14.1624 11.4528 14.1587 11.3837C14.1553 11.3145 14.1482 11.2457 14.1377 11.1773C14.1274 11.1089 14.1138 11.0412 14.0967 10.9742C14.0796 10.9072 14.0593 10.8413 14.0359 10.7764C14.0208 10.7344 14.0042 10.6929 13.9863 10.6521C13.9565 10.59 13.8938 10.4636 13.8582 10.4049C13.8306 10.3596 13.8015 10.3156 13.7708 10.2728C13.7483 10.243 13.6973 10.1762 13.6733 10.1478C13.627 10.0977 13.5166 9.98029 13.4656 9.9353C13.4358 9.91132 13.3376 9.83093 13.3064 9.80865C13.2786 9.79083 13.1646 9.7157 13.1357 9.69928C13.1023 9.68225 12.9895 9.62341 12.9551 9.60828C12.9243 9.59662 12.7979 9.54663 12.7666 9.53656C12.7351 9.52826 12.6038 9.49158 12.572 9.48486C12.5063 9.47101 12.3528 9.45355 12.2861 9.44666ZM12.4746 10.2482C12.4397 10.2457 12.4045 10.2451 12.3694 10.2463C12.2888 10.2491 12.2278 10.3167 12.2305 10.3999C12.2332 10.4831 12.2986 10.5463 12.3792 10.5435C12.4285 10.5417 12.4775 10.5452 12.5261 10.5538C12.5747 10.5625 12.6218 10.5762 12.6677 10.5948C12.7136 10.6135 12.7573 10.6368 12.7986 10.6648C12.8398 10.6927 12.8779 10.7247 12.9126 10.7607C12.9475 10.7968 12.9785 10.8361 13.0056 10.8786C13.0327 10.9212 13.0552 10.9662 13.0732 11.0135C13.0913 11.0609 13.1047 11.1097 13.113 11.1599C13.1213 11.2101 13.1248 11.2606 13.123 11.3115C13.1204 11.3947 13.1816 11.4623 13.2622 11.4651C13.3428 11.468 13.4082 11.4048 13.4109 11.3216C13.4133 11.2503 13.4084 11.1796 13.3967 11.1093C13.385 11.0391 13.3665 10.9708 13.3411 10.9044C13.3159 10.8381 13.2842 10.7751 13.2463 10.7155C13.2085 10.6559 13.165 10.6009 13.1162 10.5505C13.0894 10.528 12.9854 10.4358 12.9565 10.4162C12.8987 10.3771 12.8376 10.3444 12.7734 10.3183C12.7092 10.2921 12.6431 10.2729 12.575 10.2609C12.5417 10.2549 12.5083 10.2507 12.4746 10.2482Z"/></svg>

<svg xmlns="http://www.w3.org/2000/svg" fill="none" viewBox="0 0 24 24" focusable="false"><path fill="none" d="M0 0h24v24H0z"/><path fill="#74767B" fill-rule="evenodd" d="M12 3c-4.98 0-9 4.02-9 9 0 4.97 4.02 9 9 9a9 9 0 0 0 9-9c0-4.98-4.03-9-9-9m-5.5 8.76C6.5 8.01 8.08 6.5 12 6.5c3.91 0 5.5 1.51 5.5 5.26 0 3.74-1.59 5.26-5.5 5.26-.29 0-.52 0-.93-.06l-1.09 1.28c-.2.24-.81.33-.81-.39V16.6c-.17 0-.57-.17-1.12-.53-.55-.39-1.55-1.31-1.55-4.31m.86 0c0-2.71.49-4.37 4.64-4.37 4.14 0 4.63 1.66 4.63 4.37 0 2.7-.49 4.37-4.63 4.37l-.75-.03-1.53 1.87c-.12.12-.23.03-.23-.09v-2.05c-.17 0-.89-.36-1.09-.56-.64-.69-1.04-1.19-1.04-3.51m4.85-3.09c-.1 0-.2-.01-.3 0-.09 0-.15.06-.15.15.01.08.07.14.15.14h.13c.05 0 .1.01.15.01.05.01.1.01.15.02.04 0 .08.01.12.02s.08.01.11.02c.06.02.11.03.16.05.04.01.09.02.13.04.05.02.09.03.13.05s.08.04.13.06l.12.06c.03.02.07.05.11.07s.08.05.12.08.08.06.11.09c.04.02.08.05.11.09.07.06.14.12.2.19.07.07.13.14.18.22.06.07.11.15.16.23s.09.17.13.25c.02.05.05.1.07.15.01.04.02.08.04.11.03.09.06.18.08.28a2.635 2.635 0 0 1 .07.56v.29c-.01.08.05.15.13.15.08.01.15-.05.15-.13.01-.06.01-.11.01-.17v-.15c0-.1-.01-.21-.03-.31-.01-.11-.03-.21-.05-.31-.03-.11-.06-.21-.09-.31-.04-.09-.08-.19-.12-.29q-.06-.135-.15-.27c-.05-.09-.11-.18-.17-.26-.06-.09-.13-.17-.2-.24-.07-.08-.14-.15-.22-.22-.04-.03-.08-.07-.12-.1l-.12-.09c-.05-.04-.1-.07-.15-.1-.03-.02-.07-.05-.11-.07-.05-.02-.09-.05-.14-.07s-.09-.04-.14-.06-.09-.04-.14-.06-.1-.03-.15-.05c-.06-.02-.11-.03-.17-.05-.04-.01-.08-.02-.13-.02-.04-.01-.09-.02-.14-.03-.05 0-.1-.01-.16-.02m.71 4.34q.285-.39.69-.12l1.03.8c.16.2.09.48-.2.83-.29.36-.55.51-.8.45-1.02-.24-2-.83-2.94-1.79-.94-.95-1.53-1.98-1.76-3.09 0-.39.24-.73.72-1.01.25-.18.46-.13.64.15l.72 1.04q.165.36-.21.66c-1.12.44 1.47 3.33 2.11 2.08m-.64-3.57h-.11c-.08 0-.15.06-.15.15 0 .08.07.15.15.15h.17l.17.03c.03.01.14.04.17.05.02.01.13.04.16.06.05.02.1.05.15.07.05.03.1.06.15.1.02.01.11.09.13.11.03.02.1.09.13.12.02.02.09.11.11.13.04.05.07.1.1.15s.06.1.08.15c.03.06.05.11.07.17.02.05.04.11.05.16.02.06.03.12.04.18s.01.12.02.17v.18c-.01.09.05.15.13.16.08 0 .15-.06.15-.14q.015-.105 0-.21c0-.07-.01-.14-.02-.21s-.02-.13-.04-.2l-.06-.2a.6.6 0 0 0-.05-.12c-.03-.06-.09-.19-.13-.25a.6.6 0 0 0-.08-.13c-.03-.03-.08-.1-.1-.13l-.21-.21c-.03-.02-.13-.1-.16-.13-.03-.01-.14-.09-.17-.11a2 2 0 0 1-.18-.09l-.19-.07c-.03-.01-.16-.04-.19-.05zm.19.8h-.11c-.08 0-.14.07-.13.15 0 .09.06.15.14.15a.8.8 0 0 1 .29.05c.05.02.09.04.13.07s.08.06.12.1c.03.03.06.07.09.11.03.05.05.09.07.14s.03.09.04.14c.01.06.01.11.01.16 0 .08.06.15.14.15s.14-.06.15-.14c0-.07-.01-.15-.02-.22s-.03-.13-.05-.2a1.01 1.01 0 0 0-.23-.35c-.03-.03-.13-.12-.16-.14-.06-.04-.12-.07-.18-.1-.07-.02-.13-.04-.2-.05-.03-.01-.07-.01-.1-.02"/></svg>
